X: 1011
T: The Newmarried Couple
N:"Collected by Early"
B:O'Neill's 1011
Z:Transcribed by Dan G. Petersen, dangp@post6.tele.dk
M:6/8
L:1/8
K:G
D|GAG GBd|gfe d2c|Bdg dBG|FAA A2D|
GAG GBd|gfe d2c|BdB cAF|GAG G2:|
c|Bdg dBG|Bdg d2c|Bdg dBG|FAA A2c|
Bdd def|gfe fdc|BdB cAF|GAG G2:|


